X:1
T:Prelude, BWV 928
T:Prelude, BWV 928
T:Kleine Präludien
T:Johann Sebastian Bach
C:Johann Sebastian Bach
%%score { ( 1 3 ) | ( 2 4 ) }
L:1/8
Q:1/4=78
M:4/4
K:F
V:1 treble nm="Piano" snm="Pno."
V:3 treble 
V:2 bass 
V:4 bass 
V:1
"^Allegretto" z/!mf! (!1!F/!3!A/!5!c/ !4!B/.G/).c/.!1!G/ (!2!A/4G/4A/).!2![Acf] .!3!!5![Gdf].!4![Gce] | %1
 .[Fcf]!f!(c.f).[Adf] (!3!!5![=Bdf]/!3!d/B/.G/) .e.[Gce] | %2
 .!3!!5![Ace]/(!1!A/c/e/ a/.!2!d/).c/.!3!d/ .!2!=B/(G/B/d/ g/.!2!c/).B/.!3!c/ | %3
 .A/(!1!F/A/c/ (f2-)"_dim." f/!5!f/e- e/!5!e/d- | %4
 d/!2!G/!5!c- c/c!4!=B/) .[Ec]!ff!!arpeggio!.[egc']!arpeggio!.!5![dac']!arpeggio!.!4![dg=b] | %5
 .[cgc']/(!1!c/!3!e/!5!g/ !4!f/.d/).g/.d/ .!3!e/(!1!c/!3!f/a/"_dim." .d/)(!5!_b/a/b/) | %6
 .!2!c/(!1!A/!3!d/f/ !2!B/)(!5!g/f/g/) .!2!A/(!1!F/!3!B/d/ !1!G/)(!5!e/d/e/) | %7
 .F!f!.[FAd].[EBd].[EA^c] .[DAd]/(!1!D/!3!F/A/ G/.!2!E/).A/.E/ | %8
 .F/(D/!2!F/A/ d/A/B/.!1!G/) (.!2!^F/D/F/A/ d/!3!B/!4!c/.A/) | %9
 (B/D/G/B/ d/!3!B/!4!c/.!1!A/)!<(! (!2!^G/E/G/=B/ !5!e/!3!c/d/B/)!<)! | %10
 .c!f!(!4!c!>(!.=B)(!2!B .e)(!4!A.!2!G)(G | .c)(F.=E)!>)!.E!mp!"_cresc." z/ (D/E/F/) z/ (F/E/D/) | %12
 z/ (F/G/A/) z/ (A/G/F/) z/ (A/=B/c/) z/ (!5!c/B/A/) | %13
!mf! (^G/E/G/=B/ e/!2!A/!1!=G/.!3!A/) (F/D/F/A/ d/!2!G/!1!F/.!3!G/) | %14
 (E/C/E/G/ (c2-)"_cresc." c/!5!c/!4!=B- B/!5!B/A- | %15
 A/!4!A/^G/A/ .!5!=B).!4!c!f! (!5!dc/d/ !>!!3!c/4!2!B/4c/4!2!B/-B/4!1!A/ | .A/)!p!(E/A/=B/ c2) z4 | %17
 .B/!<(!(!1!G/B/d/ c/.A/).d/.!1!A/ .!2!B!<)!!f!!arpeggio!.!1!!3!!5![Bdg]!arpeggio!.[A_eg]!arpeggio!.!1!!2!!4![Ad^f] | %18
!f! .!1!!2!!5![Gdg](!4!b/a/"_dim." g/=f/!3!e/d/ !1!c/!5!e/!2!G/!4!c/ !1!E/!5!d/c/B/ | %19
 .!2!A)!ff!!arpeggio!.[Acf]!arpeggio!.[Gdf]!arpeggio!.[Gce] .[Fcf]/(!1!F/!3!A/c/ B/.!2!G/).c/.G/ | %20
 .!3!A/(!1!F/!2!A/c/ .!5!d).[FBd] .!5![GBd]/(!4!B/!2!G/E/ .!5!c).[EAc] | %21
!>(! .[FAc]/(!1!D/!2!F/!3!A/ !5!d/).!2!G/.!1!F/.!3!G/ .!2!E/(C/E/G/ c/).!2!F/.!1!E/.!3!F/!>)! | %22
!<(! .D/(B,/D/F/ (!5!B2-)[Q:1/4=75] B/!5!B/!4!A- A/!5!A/G- | %23
"_allargando molto"[Q:1/4=70] G/!2!C/!4!F-[Q:1/4=60] F/!>!!5!F!4!E/!<)!!ff! !arpeggio!!>!!fermata!!1!!2!!5![A,CF]4) |] %24
V:2
 z2 z2 z/!f! (!5!F,/!3!A,/!1!C/ !2!B,/!4!G,/!1!C/G,/ | %1
 .A,/)!p!(C/!2!A,/!4!F,/ .D,/)(D/C/D/) .!4!G,/(!1!=B,/!2!G,/!4!E,/ .C,/)(C/B,/C/) | %2
 F,2 z .!5!!3!!1![F,A,D] !5!!4!!1![F,G,D]2 z .[E,G,C] | .[E,F,C].!1!E.D.C .!2!=B,.!1!C.A,.B, | %4
 .C!<(!.!3!E,.!2!F,!<)!.!1!G, z/ (!5!C,/!3!E,/G,/ F,/.D,/).G,/.D,/ | %5
 .!3!E,.!1!E !2!D2 !1!C2 !2!B,2 | !1!A,2 !2!G,2 !1!F,2 !2!E,2 | %7
 z/ (!5!D,/!3!F,/!1!A,/ .!2!G,/).E,/.A,/.!4!E,/ .!3!F,.!5!!3!!1![D,F,A,].!5!!4!!1![D,E,B,].!5!!3!!1![^C,E,A,] | %8
 z2 z!mf! .!1!D .C.!1!A,.^F,.D, | .G, z .=F, z (!3!E,/F,/E,/.D,/) (C,/.A,/)(=B,,/.!2!^G,/) | %10
 .!1!A,/(!5!A,,/!3!C,/!1!E,/ !2!D,/.=B,,/).!1!E,/.B,,/ (!3!^C,/E,/D,/!1!=C,/ !2!B,,/.!4!G,,/).!1!C,/.G,,/ | %11
 (!3!A,,/C,/=B,,/!1!A,,/ !2!^G,,/.E,,/).A,,/.E,,/ .!3!^F,, z .!3!^G,, z | %12
 .!3!A,, z .=B,, z .C, z .!3!D, z | .!2!E,.D,.!4!^C,.A, .!3!D,.=C,.!5!=B,,.G, | %14
 .!1!C,.!2!=B,,.A,,.G,, .!5!^F,,.!4!^G,,.A,,.!1!C, | D,2 z/ (!1!C,/B,,/A,,/ .!4!^G,,).A,,.E,.E,, | %16
 A,,2 z (A, .!4!D,).E,.^F,.D, | .!1!G,!1!G-G.^F .G/(!5!G,/!3!B,/!1!D/ !2!C/.A,/).D/.A,/ | %18
 .B,/(!5!D,/!3!G,/!1!A,/ !2!B,/G,/!1!A,/F,/ E,/G,/C,/E,/ !1!G,/!2!B,/A,/G,/ | %19
 .!1!F,/)(!5!F,,/!3!A,,/!1!C,/ !2!B,,/G,,/C,/G,,/ .!3!A,,).!5!!3!!1![F,A,C].!5!!4!!1![F,G,D].!5!!3!!1![E,G,C] | %20
 .[F,C]/(!1!A,/!2!F,/D,/ .B,,/)(!1!B,/!2!A,/!1!B,/) .!3!E,/(!1!G,/!2!E,/C,/ .A,,/)(!1!A,/G,/A,/) | %21
 .D,.!1!C.!2!B,.G, .C,.!1!B,.!2!A,.F, | .B,,.!1!A,.!2!G,.!3!F, (!3!E,.!2!F,).!3!D,.E, | %23
 .!1!F,(!3!A,,.!2!B,,).!3!C, !fermata!!1!F,4 |] %24
V:3
 x8 | x8 | x8 | x5/2 !1!=B/c/d/ !1!G>!1!G !1!F>!1!F | !1!E>!2!E !1!D!2!F x4 | x8 | x8 | x8 | x8 | %9
 x8 | z (!1![Ac].A)(!3!^G .=G)(!2!^F.!3!=F)(E | ._E)(D.D).^C .=C z .=B, z | .C z .D z .E z .F z | %13
 x8 | x2 z/ !4!A/!1!F/!2!E/ !1!D>!1!D !1!C>!1!C | .=B,2 !3!^G/E/!2!A/E/ !3!=B/E/A !1!G2 | %16
 A/ x3/2 z/ .!3!A/.!4!_B/.!1!=G/ (^F/.A/).D/.F/ (A/.c/).B/A/ | x8 | x8 | x8 | x8 | x8 | %22
 x2 z/ !2!E/F/!4!G/ !1!C>!1!C !1!B,>!1!B, | !1!A,>!1!A, !1!G,!1!!2![B,C] x4 |] %24
V:4
 x8 | x8 | x8 | x8 | x8 | z !3!C-C!4!_B,- B,!3!A,-A,!4!G,- | G,!3!F,-F,!4!E,- E,!3!D,-D,!4!^C, | %7
 x8 | x8 | x8 | x8 | x8 | x8 | x8 | x8 | x8 | x8 | x8 | x8 | x8 | x8 | x8 | x8 | x8 |] %24

